X: 24483
T: Lucy Campbell
R: reel
M: 4/4
K: Dmajor
FD D2A2dB|ADFA BE E2|AD D2 fgfe|dBAF AD D2|
AD D2 A2 dB|A2 FA BE E2|DEFA dfec|dBAF AD D2||
dBAB defd|d2 cA BE E2|ADFA fgfe|dBAF AD D2|
dBAB defe|dB B2 gB B2|dBAB defe|dBAF AD D2||
a3 f defg|a2 fa bgeg|faaf defe|dBAF AD D2|
af f2 defg|a2 fa bgef|g3 e f3 e|dBAF AD D2||
df f2 dfef|df f2 afef|dffe f3 e|dBAF AD D2|
df f2 df f2|dff2 afef|g3 e f3 e|dBAF AD D2||

